X:132
T:Lemmie Brezil's
R:hornpipe
M:4/4
L:1/8
K:D
AG |:F2A2B2A2 | defd B2 AG | FAdA Bcdf | e2d2e2  AG |
   | F2A2B2A2 | defd B2 AG | FAdA Bcdf |1 e2e2d2 AG:|2e2e2d2 fg|
   |:afdf afdA | defd B2 AG | FAdA Bcdf | e2d2e2 fg |
   | afdf afdA | defd B2AG | FAdA Bcdf  |1e2e2d2 fg:|2e2e2d2 AG|
